!! Orlando di Lasso, "Sicut rosa" 2-part polyphony; alla breve;
!! No. 12 from "Examples of Gregorian Chant & Works ...", compiled
!! by Gustave Soderlund, Appleton-Century-Crofts (New York), 1937; pp. 19-20
**kern	**kern
*M4/2	*M4/2
=1	=1
2r	2.G
1G	.
.	4A
.	4B
.	4c
2G	4d
.	4B
=2	=2
4C	1e
4D	.
4E	.
4F	.
2.G	2d
.	[2B
4F	.
=3	=3
1E	2B]
.	2.e
1C	.
.	4d
.	2c
=4	=4
2.GG	2B
.	1d
4AA	.
4BB	.
4C	.
4D	2d
4BB	.
=5	=5
1E	4G
.	4A
.	4B
.	4c
2D	2.d
[2BB	.
.	4c
=6	=6
2BB]	1B
2.E	.
.	1G
4D	.
2C	.
=7	=7
2BB	2.d
2.GG	.
.	4c
.	4B
4AA	4A
2BB	[2G
=8	=8
2C	2G]
2.D	2F
.	1E
8C#	.
8BB	.
2C#	.
=9	=9
0D	2D
.	1A
.	2B
=10	=10
2r	1c
1E	.
.	2B
2F#	[2d
=11	=11
1G	4d]
.	4c
.	4B
.	4A
2E	4G
.	4F
[2G	4E
.	4D
=12	=12
4G]	2C
4F	.
4E	2C
4D	.
2C	1G
2BB	.
=13	=13
0C	2r
.	1G
.	2E
=14	=14
2r	1G
1C	.
.	2A
2AA	[2c
=15	=15
1C	4c]
.	4B-
.	4A
.	4G
2D	2B-
[2F	2A
=16	=16
4F]	1A
4E	.
4D	.
4C	.
2BB-	2D
2AA	2F
=17	=17
1AA	2E
.	2F
2E	1G
2C	.
=18	=18
2BB	2.G
2C	.
.	4A
1D	2B-
.	2A
=19	=19
2D	2F
2AA	2c
1E	2B
.	2c
=20	=20
2r	2d
2F	2.c
2E	.
.	4B
2F	[2d
=21	=21
1G	2d]
.	4c
.	4B
2F	4d
.	4A
2E	[2c
=22	=22
1D	2c]
.	2B
2r	1c
2AA	.
=23	=23
2BB	2r
1C	2G
.	2A
2GG	[2B-
=24	=24
1D	2B-]
.	2F
2E	1c
[2F	.
=25	=25
4F]	2d
8E	.
8D	.
4C	2.e
4D	.
4E	.
4F	8d
.	8c
[2G	4B
.	4c
=26	=26
4G]	4d
4F	4A
4F	2.d
8E	.
8D	.
1E	.
.	8c#
.	8B
.	2c#
=27	=27
1D	0d
2r	.
2G	.
=28	=28
2A	2r
2.G	2d
.	2e
4E	.
2F#	[2d
=29	=29
2G	4d]
.	4B
2A	2c#
2F	2d
[2C	2e
=30	=30
4C]	2c
4D	.
4E	4G
4F	4A
1G	4B
.	4c
.	2d
=31	=31
2E	1G
2C	.
2D	2r
[2C	2G
=32	=32
4C]	2A
4AA	.
2BB	2.G
2C	.
.	4E
2D	2F#
=33	=33
2E	2G
2.F	2A
.	1c
4E	.
[2A	.
=34	=34
4A]	2.B
4G	.
2.G	.
.	8A
.	8G
.	1A
8F#	.
8E	.
2F#	.
=35	=35
0G;	0G;
==	==
*-	*-
